!! 00000] TT[
!!!OTL: Qing nian can jun
!!!ARE: Asia, China,ÿDongbei, Diqu
!! Ethnic Group: Han
!! MM, ZHONGGUO MINGE XUAN S.42
!!!SCT: C1297
!!!YEM: Copyright 1995, estate of Helmut Schaffrath.
**kern
*ICvox
*Ivox
*M2/4
*k[f#c#g#d#]
*E:
{8ee
8ee
8b
8cc#
=1
4.b
8cc#
=2
8ee
8ee
8b
8cc#
=3
2b}
=4
{8g#
8b
8cc#
16b
16cc#
=5
8ee
8ee
8cc#
8b
=6
8b
8g#
8f#
8g#
=7
8b
8g#
4b}
=8
{8cc#
8b
8cc#
16b
16cc#
=9
8ee
8ee
8cc#
8b
=10
8g#
4g#
8cc#
=11
8b
8cc#
8b
8g#}
=12
{8f#
8e
8f#
8f#
=13
8r
4b
8g#
=14
8f#
8b
8g#
8f#
=15
8e
4e
8f#
=16
2e}
=17
{8cc#
8b
8cc#
8ff#
=18
8ee
8cc#
8b
8g#}
=19
{8f#
8e
8f#
8f#
=20
8r
4b
8g#
=21
8f#
8b
8g#
8f#
=22
8e
4e
8f#
=23
2e}
==
!!!AGN: Xiaodiao, Xiu Luoqun Diao, Jiandianhua diao. Geming lishi minge
!! Pinyin-Text der ersten Strophe vorhanden!
!!!ONB: ESAC (Essen Associative Code) Database: CHINA
!!!AMT: simple duple
!!!AIN: vox
!!!EED: Helmut Schaffrath
!!!EEV: 1.0
*-
!!!OTL: Han wo qingge chi huoshao
!!!ARE: Asia, China,ÿHubei, Jiangling
!! I, 445
!!!SCT: C1453
!!!YEM: Copyright 1995, estate of Helmut Schaffrath.
**kern
*ICvox
*Ivox
!! Irregular meter.
*MX
*k[b-e-a-]
*E-:
{8g
16g
16b-
8.b-
16cc
8ff
8ff
4cc
4r}
=1
{8ee-
8cc
8ff
16ee-
16cc
4b-
8cc
2ff
8ff
=2
8ee-
16ee-
16ff
4cc
4r}
=3
{4b-
4ff
8ee-
8cc
8b-
4.b-
=4
8ee-
8cc
8b-
8cc
4ff
4ee-
2cc}
{16g
16b-
16cc
16ee-
=5
16g
16b-
16g
16b-}
{16cc
16b-
16g
16b-
=6
16cc
16b-
16cc
16ee-}
{16cc
16ee-
16g
16b-
=7
16g
16b-
16cc
16ee-}
{16g
16b-
16b-
16r
=8
16cc
16b-
16cc
16ee-}
{16g
16b-
16g
16b-
=9
16cc
16b-
16cc
16ee-}
{16cc
16b-
16b-
16r
=10
16cc
16b-
16cc
16ee-}
{16cc
32b-
32b-
16g
16cc
=11
8b-
8b-}
{4.b-
8g
4ff
8cc
[8ff
4.ff]
8ff
=12
16ee-
16ff
16ee-
16cc
4cc
4r}
=13
{4b-
4ff
16ff
16ee-
16cc
[16b-
8b-]
4.b-
4r
=14
8ee-
8cc
8b-
8cc
4ff
4ee-
2cc}
==
!!!AGN: Shange, Ganwuju
!!!ONB: ESAC (Essen Associative Code) Database: HUANG
!!!AMT: irregular
!!!AIN: vox
!!!EED: Helmut Schaffrath
!!!EEV: 1.0
*-
